symbols/web/sync_problem/materialsymbolsrounded/sync_problem_wght600grad200_24px.svg

<svg xmlns="http://www.w3.org/2000/svg" height="24" width="24"><path d="M12 13.05q-.575 0-.95-.388-.375-.387-.375-.937V7.85q0-.575.375-.95t.95-.375q.55 0 .938.375.387.375.387.95v3.875q0 .55-.387.937-.388.388-.938.388Zm0 4.375q-.6 0-1-.4t-.4-.975q0-.575.4-.975t1-.4q.575 0 .975.4t.4.975q0 .575-.4.975t-.975.4Zm4.85 2.525q-.75.325-1.375-.125t-.625-1.375q0-.425.288-.825.287-.4.712-.625 1.4-.675 2.237-2.05.838-1.375.838-3 0-.925-.338-1.863-.337-.937-1.087-1.762v.55q0 .55-.375.937-.375.388-.95.388-.55 0-.937-.388-.388-.387-.388-.937v-4q0-.625.438-1.063.437-.437 1.087-.437h4q.575 0 .937.375.363.375.363.95 0 .55-.363.925Q20.95 6 20.375 6H19.5q1.3 1.3 1.9 2.838.6 1.537.6 3.112 0 2.65-1.413 4.8-1.412 2.15-3.737 3.2Zm-13.275.675q-.55 0-.937-.375-.388-.375-.388-.95 0-.55.388-.925.387-.375.937-.375h.875q-1.3-1.3-1.912-2.838-.613-1.537-.613-3.112 0-2.65 1.412-4.8Q4.75 5.1 7.075 4.05q.775-.325 1.4.125.625.45.625 1.375 0 .425-.288.825-.287.4-.712.625-1.4.675-2.25 2.05-.85 1.375-.85 3 0 .925.35 1.862.35.938 1.075 1.763h.025v-.55q0-.55.375-.937.375-.388.925-.388t.938.388q.387.387.387.937v4q0 .625-.437 1.063-.438.437-1.088.437Z"/></svg>

<svg xmlns="http://www.w3.org/2000/svg" height="24" width="24"><path d="M12 13.05Q11.425 13.05 11.05 12.662Q10.675 12.275 10.675 11.725V7.85Q10.675 7.275 11.05 6.9Q11.425 6.525 12 6.525Q12.55 6.525 12.938 6.9Q13.325 7.275 13.325 7.85V11.725Q13.325 12.275 12.938 12.662Q12.55 13.05 12 13.05ZM12 17.425Q11.4 17.425 11 17.025Q10.6 16.625 10.6 16.05Q10.6 15.475 11 15.075Q11.4 14.675 12 14.675Q12.575 14.675 12.975 15.075Q13.375 15.475 13.375 16.05Q13.375 16.625 12.975 17.025Q12.575 17.425 12 17.425ZM16.85 19.95Q16.1 20.275 15.475 19.825Q14.85 19.375 14.85 18.45Q14.85 18.025 15.138 17.625Q15.425 17.225 15.85 17Q17.25 16.325 18.087 14.95Q18.925 13.575 18.925 11.95Q18.925 11.025 18.587 10.087Q18.25 9.15 17.5 8.325V8.875Q17.5 9.425 17.125 9.812Q16.75 10.2 16.175 10.2Q15.625 10.2 15.238 9.812Q14.85 9.425 14.85 8.875V4.875Q14.85 4.25 15.288 3.812Q15.725 3.375 16.375 3.375H20.375Q20.95 3.375 21.312 3.75Q21.675 4.125 21.675 4.7Q21.675 5.25 21.312 5.625Q20.95 6 20.375 6H19.5Q20.8 7.3 21.4 8.838Q22 10.375 22 11.95Q22 14.6 20.587 16.75Q19.175 18.9 16.85 19.95ZM3.575 20.625Q3.025 20.625 2.638 20.25Q2.25 19.875 2.25 19.3Q2.25 18.75 2.638 18.375Q3.025 18 3.575 18H4.45Q3.15 16.7 2.538 15.162Q1.925 13.625 1.925 12.05Q1.925 9.4 3.337 7.25Q4.75 5.1 7.075 4.05Q7.85 3.725 8.475 4.175Q9.1 4.625 9.1 5.55Q9.1 5.975 8.812 6.375Q8.525 6.775 8.1 7Q6.7 7.675 5.85 9.05Q5 10.425 5 12.05Q5 12.975 5.35 13.912Q5.7 14.85 6.425 15.675H6.45V15.125Q6.45 14.575 6.825 14.188Q7.2 13.8 7.75 13.8Q8.3 13.8 8.688 14.188Q9.075 14.575 9.075 15.125V19.125Q9.075 19.75 8.638 20.188Q8.2 20.625 7.55 20.625Z"/></svg>
